svg/aws-ec2-f1.svg

<?xml version="1.0" encoding="UTF-8"?>
<svg xmlns="http://www.w3.org/2000/svg" xmlns:xlink="http://www.w3.org/1999/xlink" width="32" height="32" viewBox="0 0 32 32">
<path fill-rule="evenodd" fill="rgb(83.137255%, 35.686275%, 2.745098%)" fill-opacity="1" d="M 18.871094 13.890625 L 17.125 14.542969 L 17.125 13.648438 L 18.972656 12.789062 L 19.980469 12.789062 L 19.980469 19.257812 L 18.871094 19.257812 Z M 13.160156 19.257812 L 12.019531 19.257812 L 12.019531 12.789062 L 15.949219 12.789062 L 15.949219 13.703125 L 13.160156 13.703125 L 13.160156 15.570312 L 15.445312 15.570312 L 15.445312 16.484375 L 13.160156 16.484375 Z M 6 26 L 26 26 L 26 6 L 6 6 Z M 30.667969 8.667969 L 30.667969 7.332031 L 27.332031 7.332031 L 27.332031 5.332031 C 27.332031 4.964844 27.035156 4.667969 26.667969 4.667969 L 24.667969 4.667969 L 24.667969 1.332031 L 23.332031 1.332031 L 23.332031 4.667969 L 20.667969 4.667969 L 20.667969 1.332031 L 19.332031 1.332031 L 19.332031 4.667969 L 16.667969 4.667969 L 16.667969 1.332031 L 15.332031 1.332031 L 15.332031 4.667969 L 12.667969 4.667969 L 12.667969 1.332031 L 11.332031 1.332031 L 11.332031 4.667969 L 8.667969 4.667969 L 8.667969 1.332031 L 7.332031 1.332031 L 7.332031 4.667969 L 5.332031 4.667969 C 4.964844 4.667969 4.667969 4.964844 4.667969 5.332031 L 4.667969 7.332031 L 1.332031 7.332031 L 1.332031 8.667969 L 4.667969 8.667969 L 4.667969 11.332031 L 1.332031 11.332031 L 1.332031 12.667969 L 4.667969 12.667969 L 4.667969 15.332031 L 1.332031 15.332031 L 1.332031 16.667969 L 4.667969 16.667969 L 4.667969 19.332031 L 1.332031 19.332031 L 1.332031 20.667969 L 4.667969 20.667969 L 4.667969 23.332031 L 1.332031 23.332031 L 1.332031 24.667969 L 4.667969 24.667969 L 4.667969 26.667969 C 4.667969 27.035156 4.964844 27.332031 5.332031 27.332031 L 7.332031 27.332031 L 7.332031 30.667969 L 8.667969 30.667969 L 8.667969 27.332031 L 11.332031 27.332031 L 11.332031 30.667969 L 12.667969 30.667969 L 12.667969 27.332031 L 15.332031 27.332031 L 15.332031 30.667969 L 16.667969 30.667969 L 16.667969 27.332031 L 19.332031 27.332031 L 19.332031 30.667969 L 20.667969 30.667969 L 20.667969 27.332031 L 23.332031 27.332031 L 23.332031 30.667969 L 24.667969 30.667969 L 24.667969 27.332031 L 26.667969 27.332031 C 27.035156 27.332031 27.332031 27.035156 27.332031 26.667969 L 27.332031 24.667969 L 30.667969 24.667969 L 30.667969 23.332031 L 27.332031 23.332031 L 27.332031 20.667969 L 30.667969 20.667969 L 30.667969 19.332031 L 27.332031 19.332031 L 27.332031 16.667969 L 30.667969 16.667969 L 30.667969 15.332031 L 27.332031 15.332031 L 27.332031 12.667969 L 30.667969 12.667969 L 30.667969 11.332031 L 27.332031 11.332031 L 27.332031 8.667969 Z M 30.667969 8.667969 "/>
</svg>

<svg role="img" viewBox="0 0 32 32" xmlns="http://www.w3.org/2000/svg"><path d="m18.871 13.89-1.746.653v-.895l1.848-.859h1.007v6.469h-1.109Zm-5.71 5.368H12.02v-6.469h3.93v.914h-2.79v1.867h2.285v.914H13.16ZM6 26h20V6H6ZM30.668 8.668V7.332h-3.336v-2a.664.664 0 0 0-.664-.664h-2V1.332h-1.336v3.336h-2.664V1.332h-1.336v3.336h-2.664V1.332h-1.336v3.336h-2.664V1.332h-1.336v3.336H8.668V1.332H7.332v3.336h-2a.664.664 0 0 0-.664.664v2H1.332v1.336h3.336v2.664H1.332v1.336h3.336v2.664H1.332v1.336h3.336v2.664H1.332v1.336h3.336v2.664H1.332v1.336h3.336v2c0 .367.297.664.664.664h2v3.336h1.336v-3.336h2.664v3.336h1.336v-3.336h2.664v3.336h1.336v-3.336h2.664v3.336h1.336v-3.336h2.664v3.336h1.336v-3.336h2a.664.664 0 0 0 .664-.664v-2h3.336v-1.336h-3.336v-2.664h3.336v-1.336h-3.336v-2.664h3.336v-1.336h-3.336v-2.664h3.336v-1.336h-3.336V8.668Zm0 0" fill="rgb(83.137256%, 35.686275%, 2.745098%)" fill-rule="evenodd"/></svg>
